X: 25
T: Folding Down the Sheets
R: Reel
S:https://trillian.mit.edu/~jc/music/abc/session/PumpkinPatch/Folding_Down_the_Sheets/Folding_Down_the_Sheets_5-D-32-2.abc
M: 4/4
L: 1/8
K: D
ag |: "D"f2d2 "A"cdec | "D"d2F2  A2dc | "G"B2G2 "D"A2F2 |1 "A"EDEF "D"D2 ag:|2"A"EDEF "D"D4]
|: "A"edef    gfgf | "A"ece^g a2a2 |    c2a2 "G"B2g2 |1 "A7"f2fe "D"d2 f2:|2 "A7"f2e2 "D"d4 |]

